zama_app/src/assets/svg/home-off.svg

<svg width="29" height="29" viewBox="0 0 29 29" fill="none" xmlns="http://www.w3.org/2000/svg">
<path d="M28.188 7.98564L15.3611 0.239964C15.1011 0.082944 14.8035 0 14.5003 0C14.197 0 13.8995 0.082944 13.6395 0.239964L0.812558 7.98564C0.565321 8.13576 0.360679 8.34745 0.218357 8.60031C0.0760351 8.85316 0.000832989 9.13865 0 9.42926V26.1936C0.000885536 26.9376 0.294953 27.6509 0.8177 28.177C1.34045 28.7031 2.04919 28.9991 2.78846 29H8.92308C9.3668 29 9.79236 28.8226 10.1061 28.5068C10.4199 28.191 10.5962 27.7627 10.5962 27.3162V20.0195C10.5962 19.8706 10.6549 19.7279 10.7595 19.6226C10.8641 19.5174 11.0059 19.4582 11.1538 19.4582H17.8462C17.9941 19.4582 18.1359 19.5174 18.2405 19.6226C18.3451 19.7279 18.4038 19.8706 18.4038 20.0195V27.3162C18.4038 27.7627 18.5801 28.191 18.8939 28.5068C19.2076 28.8226 19.6332 29 20.0769 29H26.2115C26.9508 28.9991 27.6596 28.7031 28.1823 28.177C28.705 27.6509 28.9991 26.9376 29 26.1936V9.42926C28.9992 9.1387 28.9241 8.85325 28.7819 8.6004C28.6397 8.34755 28.4351 8.13583 28.188 7.98564ZM27.8846 26.1936C27.8846 26.6402 27.7083 27.0685 27.3946 27.3843C27.0808 27.7 26.6553 27.8774 26.2115 27.8774H20.0769C19.929 27.8774 19.7872 27.8183 19.6826 27.713C19.578 27.6078 19.5192 27.465 19.5192 27.3162V20.0195C19.5192 19.5729 19.343 19.1446 19.0292 18.8288C18.7154 18.5131 18.2899 18.3357 17.8462 18.3357H11.1538C10.7101 18.3357 10.2846 18.5131 9.9708 18.8288C9.65704 19.1446 9.48077 19.5729 9.48077 20.0195V27.3162C9.48077 27.465 9.42201 27.6078 9.31743 27.713C9.21284 27.8183 9.07099 27.8774 8.92308 27.8774H2.78846C2.34473 27.8774 1.91918 27.7 1.60542 27.3843C1.29165 27.0685 1.11538 26.6402 1.11538 26.1936V9.42926C1.1154 9.3324 1.14032 9.23721 1.18772 9.15292C1.23511 9.06863 1.30338 8.99812 1.38587 8.94824L14.2128 1.20256C14.2996 1.15 14.399 1.12224 14.5003 1.12224C14.6016 1.12224 14.701 1.15 14.7878 1.20256L27.6147 8.94824C27.6972 8.99812 27.7654 9.06863 27.8128 9.15292C27.8602 9.23721 27.8852 9.3324 27.8852 9.42926L27.8846 26.1936Z" fill="#BEAFE8"/>
</svg>

<svg width="29" height="29" viewBox="0 0 29 29" fill="none" xmlns="http://www.w3.org/2000/svg">
    <path d="M28.188 7.986 15.361.24a1.665 1.665 0 0 0-1.722 0L.813 7.986A1.687 1.687 0 0 0 0 9.429v16.765c0 .744.295 1.457.818 1.983a2.783 2.783 0 0 0 1.97.823h6.135c.444 0 .87-.177 1.183-.493a1.69 1.69 0 0 0 .49-1.19V20.02a.563.563 0 0 1 .558-.562h6.692a.556.556 0 0 1 .558.562v7.296c0 .447.176.875.49 1.19.314.317.74.494 1.183.494h6.134c.74 0 1.449-.297 1.971-.823A2.82 2.82 0 0 0 29 26.194V9.429a1.7 1.7 0 0 0-.812-1.443zm-.303 18.208c0 .446-.177.875-.49 1.19-.314.316-.74.493-1.183.493h-6.135a.556.556 0 0 1-.558-.56V20.02a1.69 1.69 0 0 0-.49-1.191 1.668 1.668 0 0 0-1.183-.493h-6.692c-.444 0-.87.177-1.183.493a1.69 1.69 0 0 0-.49 1.19v7.297a.563.563 0 0 1-.558.561H2.788c-.443 0-.869-.177-1.183-.493a1.69 1.69 0 0 1-.49-1.19V9.429a.564.564 0 0 1 .27-.48l12.828-7.746a.555.555 0 0 1 .575 0l12.827 7.745a.56.56 0 0 1 .27.481v16.765z" fill="#BEAFE8"/>
</svg>
